libs/core/assets/icons/building.svg

<svg fill="none" height="32" viewBox="0 0 30 32" width="30" xmlns="http://www.w3.org/2000/svg">
<path d="M28.75 7.50025H16.875V0.625C16.875 0.279875 16.5952 0 16.25 0H1.25C0.904813 0 0.625 0.279875 0.625 0.625V31.3749C0.625 31.7201 0.904813 31.9999 1.25 31.9999H16.25H28.75C29.0952 31.9999 29.375 31.7201 29.375 31.3749V8.12525C29.375 7.78006 29.0951 7.50025 28.75 7.50025ZM16.875 8.75025H28.125V24.4999H16.875V8.75025ZM6.875 30.7499V25.7499H10.625V30.7499H6.875ZM11.25 24.4999H6.25C5.90481 24.4999 5.625 24.7798 5.625 25.1249V30.7499H1.875V1.25H15.625V30.7499H11.875V25.1249C11.875 24.7798 11.5951 24.4999 11.25 24.4999ZM16.8749 30.7499V25.7499H28.1249V30.7499H16.8749Z" fill="#41474D"/>
<path d="M8.125 5H9.37481C9.72 5 9.99981 4.72019 9.99981 4.375V3.125C9.99981 2.77981 9.72 2.5 9.37481 2.5H8.125C7.77981 2.5 7.5 2.77981 7.5 3.125V4.375C7.5 4.72019 7.77981 5 8.125 5Z" fill="#41474D"/>
<path d="M8.125 9.375H9.37481C9.72 9.375 9.99981 9.09519 9.99981 8.75V7.5C9.99981 7.15481 9.72 6.875 9.37481 6.875H8.125C7.77981 6.875 7.5 7.15481 7.5 7.5V8.75C7.5 9.09519 7.77981 9.375 8.125 9.375Z" fill="#41474D"/>
<path d="M8.125 13.75H9.37481C9.72 13.75 9.99981 13.4702 9.99981 13.125V11.875C9.99981 11.5298 9.72 11.25 9.37481 11.25H8.125C7.77981 11.25 7.5 11.5298 7.5 11.875V13.125C7.5 13.4702 7.77981 13.75 8.125 13.75Z" fill="#41474D"/>
<path d="M8.125 18.125H9.37481C9.72 18.125 9.99981 17.8452 9.99981 17.5V16.25C9.99981 15.9048 9.72 15.625 9.37481 15.625H8.125C7.77981 15.625 7.5 15.9048 7.5 16.25V17.5C7.5 17.8452 7.77981 18.125 8.125 18.125Z" fill="#41474D"/>
<path d="M8.125 22.5H9.37481C9.72 22.5 9.99981 22.2202 9.99981 21.875V20.625C9.99981 20.2798 9.72 20 9.37481 20H8.125C7.77981 20 7.5 20.2798 7.5 20.625V21.875C7.5 22.2202 7.77981 22.5 8.125 22.5Z" fill="#41474D"/>
<path d="M3.75 5H4.99981C5.345 5 5.62481 4.72019 5.62481 4.375V3.125C5.62481 2.77981 5.345 2.5 4.99981 2.5H3.75C3.40481 2.5 3.125 2.77981 3.125 3.125V4.375C3.125 4.72019 3.40481 5 3.75 5Z" fill="#41474D"/>
<path d="M3.75 9.375H4.99981C5.345 9.375 5.62481 9.09519 5.62481 8.75V7.5C5.62481 7.15481 5.345 6.875 4.99981 6.875H3.75C3.40481 6.875 3.125 7.15481 3.125 7.5V8.75C3.125 9.09519 3.40481 9.375 3.75 9.375Z" fill="#41474D"/>
<path d="M3.75 13.75H4.99981C5.345 13.75 5.62481 13.4702 5.62481 13.125V11.875C5.62481 11.5298 5.345 11.25 4.99981 11.25H3.75C3.40481 11.25 3.125 11.5298 3.125 11.875V13.125C3.125 13.4702 3.40481 13.75 3.75 13.75Z" fill="#41474D"/>
<path d="M3.75 18.125H4.99981C5.345 18.125 5.62481 17.8452 5.62481 17.5V16.25C5.62481 15.9048 5.345 15.625 4.99981 15.625H3.75C3.40481 15.625 3.125 15.9048 3.125 16.25V17.5C3.125 17.8452 3.40481 18.125 3.75 18.125Z" fill="#41474D"/>
<path d="M3.75 22.5H4.99981C5.345 22.5 5.62481 22.2202 5.62481 21.875V20.625C5.62481 20.2798 5.345 20 4.99981 20H3.75C3.40481 20 3.125 20.2798 3.125 20.625V21.875C3.125 22.2202 3.40481 22.5 3.75 22.5Z" fill="#41474D"/>
<path d="M13.7498 2.5H12.5C12.1548 2.5 11.875 2.77981 11.875 3.125V4.375C11.875 4.72019 12.1548 5 12.5 5H13.7498C14.095 5 14.3748 4.72019 14.3748 4.375V3.125C14.3748 2.77981 14.095 2.5 13.7498 2.5Z" fill="#41474D"/>
<path d="M13.7498 6.875H12.5C12.1548 6.875 11.875 7.15481 11.875 7.5V8.75C11.875 9.09519 12.1548 9.375 12.5 9.375H13.7498C14.095 9.375 14.3748 9.09519 14.3748 8.75V7.5C14.3748 7.15488 14.095 6.875 13.7498 6.875Z" fill="#41474D"/>
<path d="M13.7498 11.25H12.5C12.1548 11.25 11.875 11.5298 11.875 11.875V13.125C11.875 13.4702 12.1548 13.75 12.5 13.75H13.7498C14.095 13.75 14.3748 13.4702 14.3748 13.125V11.875C14.3748 11.5299 14.095 11.25 13.7498 11.25Z" fill="#41474D"/>
<path d="M13.7498 15.625H12.5C12.1548 15.625 11.875 15.9048 11.875 16.25V17.5C11.875 17.8452 12.1548 18.125 12.5 18.125H13.7498C14.095 18.125 14.3748 17.8452 14.3748 17.5V16.25C14.3748 15.9049 14.095 15.625 13.7498 15.625Z" fill="#41474D"/>
<path d="M13.7498 20H12.5C12.1548 20 11.875 20.2798 11.875 20.625V21.875C11.875 22.2202 12.1548 22.5 12.5 22.5H13.7498C14.095 22.5 14.3748 22.2202 14.3748 21.875V20.625C14.3748 20.2798 14.095 20 13.7498 20Z" fill="#41474D"/>
<path d="M25.3123 11.25H24.0625C23.7173 11.25 23.4375 11.5298 23.4375 11.875V13.125C23.4375 13.4702 23.7173 13.75 24.0625 13.75H25.3123C25.6575 13.75 25.9373 13.4702 25.9373 13.125V11.875C25.9373 11.5299 25.6574 11.25 25.3123 11.25Z" fill="#41474D"/>
<path d="M25.3123 15.625H24.0625C23.7173 15.625 23.4375 15.9048 23.4375 16.25V17.5C23.4375 17.8452 23.7173 18.125 24.0625 18.125H25.3123C25.6575 18.125 25.9373 17.8452 25.9373 17.5V16.25C25.9373 15.9049 25.6574 15.625 25.3123 15.625Z" fill="#41474D"/>
<path d="M25.3123 20H24.0625C23.7173 20 23.4375 20.2798 23.4375 20.625V21.875C23.4375 22.2202 23.7173 22.5 24.0625 22.5H25.3123C25.6575 22.5 25.9373 22.2202 25.9373 21.875V20.625C25.9373 20.2798 25.6574 20 25.3123 20Z" fill="#41474D"/>
<path d="M20.9373 11.25H19.6875C19.3423 11.25 19.0625 11.5298 19.0625 11.875V13.125C19.0625 13.4702 19.3423 13.75 19.6875 13.75H20.9373C21.2825 13.75 21.5623 13.4702 21.5623 13.125V11.875C21.5623 11.5299 21.2824 11.25 20.9373 11.25Z" fill="#41474D"/>
<path d="M20.9373 15.625H19.6875C19.3423 15.625 19.0625 15.9048 19.0625 16.25V17.5C19.0625 17.8452 19.3423 18.125 19.6875 18.125H20.9373C21.2825 18.125 21.5623 17.8452 21.5623 17.5V16.25C21.5623 15.9049 21.2824 15.625 20.9373 15.625Z" fill="#41474D"/>
<path d="M20.9373 20H19.6875C19.3423 20 19.0625 20.2798 19.0625 20.625V21.875C19.0625 22.2202 19.3423 22.5 19.6875 22.5H20.9373C21.2825 22.5 21.5623 22.2202 21.5623 21.875V20.625C21.5623 20.2798 21.2824 20 20.9373 20Z" fill="#41474D"/>
</svg>

<svg fill="none" height="32" viewBox="0 0 30 32" width="30" xmlns="http://www.w3.org/2000/svg"><path d="M28.75 7.5H16.875V.625A.625.625 0 0016.25 0h-15a.625.625 0 00-.625.625v30.75c0 .345.28.625.625.625h27.5c.345 0 .625-.28.625-.625V8.125a.625.625 0 00-.625-.625zM16.875 8.75h11.25V24.5h-11.25V8.75zm-10 22v-5h3.75v5h-3.75zm4.375-6.25h-5a.625.625 0 00-.625.625v5.625h-3.75V1.25h13.75v29.5h-3.75v-5.625a.625.625 0 00-.625-.625zm5.625 6.25v-5h11.25v5h-11.25z" fill="#41474D"/><path d="M8.125 5h1.25C9.72 5 10 4.72 10 4.375v-1.25a.625.625 0 00-.625-.625h-1.25a.625.625 0 00-.625.625v1.25c0 .345.28.625.625.625zm0 4.375h1.25c.345 0 .625-.28.625-.625V7.5a.625.625 0 00-.625-.625h-1.25A.625.625 0 007.5 7.5v1.25c0 .345.28.625.625.625zm0 4.375h1.25c.345 0 .625-.28.625-.625v-1.25a.625.625 0 00-.625-.625h-1.25a.625.625 0 00-.625.625v1.25c0 .345.28.625.625.625zm0 4.375h1.25c.345 0 .625-.28.625-.625v-1.25a.625.625 0 00-.625-.625h-1.25a.625.625 0 00-.625.625v1.25c0 .345.28.625.625.625zm0 4.375h1.25c.345 0 .625-.28.625-.625v-1.25A.625.625 0 009.375 20h-1.25a.625.625 0 00-.625.625v1.25c0 .345.28.625.625.625zM3.75 5H5c.345 0 .625-.28.625-.625v-1.25A.625.625 0 005 2.5H3.75a.625.625 0 00-.625.625v1.25c0 .345.28.625.625.625zm0 4.375H5c.345 0 .625-.28.625-.625V7.5A.625.625 0 005 6.875H3.75a.625.625 0 00-.625.625v1.25c0 .345.28.625.625.625zm0 4.375H5c.345 0 .625-.28.625-.625v-1.25A.625.625 0 005 11.25H3.75a.625.625 0 00-.625.625v1.25c0 .345.28.625.625.625zm0 4.375H5c.345 0 .625-.28.625-.625v-1.25A.625.625 0 005 15.625H3.75a.625.625 0 00-.625.625v1.25c0 .345.28.625.625.625zm0 4.375H5c.345 0 .625-.28.625-.625v-1.25A.625.625 0 005 20H3.75a.625.625 0 00-.625.625v1.25c0 .345.28.625.625.625zm10-20H12.5a.625.625 0 00-.625.625v1.25c0 .345.28.625.625.625h1.25c.345 0 .625-.28.625-.625v-1.25a.625.625 0 00-.625-.625zm0 4.375H12.5a.625.625 0 00-.625.625v1.25c0 .345.28.625.625.625h1.25c.345 0 .625-.28.625-.625V7.5a.625.625 0 00-.625-.625zm0 4.375H12.5a.625.625 0 00-.625.625v1.25c0 .345.28.625.625.625h1.25c.345 0 .625-.28.625-.625v-1.25a.625.625 0 00-.625-.625zm0 4.375H12.5a.625.625 0 00-.625.625v1.25c0 .345.28.625.625.625h1.25c.345 0 .625-.28.625-.625v-1.25a.625.625 0 00-.625-.625zm0 4.375H12.5a.625.625 0 00-.625.625v1.25c0 .345.28.625.625.625h1.25c.345 0 .625-.28.625-.625v-1.25A.625.625 0 0013.75 20zm11.562-8.75h-1.25a.625.625 0 00-.625.625v1.25c0 .345.28.625.625.625h1.25c.345 0 .625-.28.625-.625v-1.25a.625.625 0 00-.625-.625zm0 4.375h-1.25a.625.625 0 00-.625.625v1.25c0 .345.28.625.625.625h1.25c.345 0 .625-.28.625-.625v-1.25a.625.625 0 00-.625-.625zm0 4.375h-1.25a.625.625 0 00-.625.625v1.25c0 .345.28.625.625.625h1.25c.345 0 .625-.28.625-.625v-1.25a.625.625 0 00-.625-.625zm-4.375-8.75h-1.25a.625.625 0 00-.625.625v1.25c0 .345.28.625.625.625h1.25c.345 0 .625-.28.625-.625v-1.25a.625.625 0 00-.625-.625zm0 4.375h-1.25a.625.625 0 00-.625.625v1.25c0 .345.28.625.625.625h1.25c.345 0 .625-.28.625-.625v-1.25a.625.625 0 00-.625-.625zm0 4.375h-1.25a.625.625 0 00-.625.625v1.25c0 .345.28.625.625.625h1.25c.345 0 .625-.28.625-.625v-1.25a.625.625 0 00-.625-.625z" fill="#41474D"/></svg>
